public/images/cy1.svg

<svg width="100" height="100" viewBox="0 0 100 100" fill="none" xmlns="http://www.w3.org/2000/svg">
<path d="M39.7431 48.0959C40.4828 48.0959 41.0376 48.1884 41.5924 48.4658C42.1472 48.6507 42.6095 49.0206 43.0718 49.3905C43.4417 49.7603 43.8116 50.2227 43.9965 50.7775C44.1814 51.3322 44.2739 51.887 44.2739 52.4418C44.2739 53.3665 44.089 54.1987 43.7191 54.8459C43.3492 55.4932 42.702 56.048 41.7773 56.4179C42.2397 56.5103 42.5171 56.6953 42.7945 56.9727C43.0718 57.2501 43.2568 57.5275 43.4417 57.8049C43.6266 58.1747 43.7191 58.4521 43.8116 58.9144C43.904 59.2843 43.904 59.7466 43.9965 60.1165C43.9965 60.3939 43.9965 60.6713 43.9965 60.9487C43.9965 61.3185 43.9965 61.5959 44.089 61.9658C44.089 62.3357 44.1814 62.6131 44.2739 62.9829C44.3664 63.2603 44.4588 63.5377 44.6438 63.8151H41.2225C41.0376 63.3528 40.9451 62.7055 40.8527 62.0583C40.8527 61.411 40.7602 60.6713 40.6677 60.1165C40.5753 59.2843 40.2979 58.7295 39.928 58.3596C39.5581 57.9898 38.9109 57.8049 38.0787 57.8049H34.7499V63.9076H31.3287V48.0959H39.7431ZM38.4486 55.1233C39.1883 55.1233 39.8355 54.9384 40.2054 54.5685C40.5753 54.1987 40.7602 53.6439 40.7602 52.8117C40.7602 52.072 40.5753 51.5172 40.2054 51.1473C39.8355 50.7775 39.1883 50.5925 38.4486 50.5925H34.7499V55.0309H38.4486V55.1233Z" fill="#706259"/>
<path d="M46.678 54.0137C46.9554 53.5514 47.4177 53.1815 47.8801 52.9041C48.3424 52.6267 48.8972 52.4418 49.5445 52.2568C50.1917 52.1644 50.7465 52.0719 51.3938 52.0719C51.9486 52.0719 52.5034 52.0719 53.1506 52.1644C53.7054 52.2568 54.2602 52.4418 54.7225 52.6267C55.1849 52.9041 55.5547 53.1815 55.9246 53.6438C56.202 54.1061 56.3869 54.5685 56.3869 55.3082V61.226C56.3869 61.7808 56.3869 62.2431 56.4794 62.7055C56.5718 63.1678 56.6643 63.5377 56.7568 63.7226H53.6129C53.5205 63.5377 53.5205 63.3527 53.428 63.1678C53.428 62.9829 53.3355 62.7979 53.3355 62.613C52.8732 63.1678 52.226 63.4452 51.5787 63.7226C50.9314 63.9075 50.1917 64 49.5445 64C48.9897 64 48.5273 63.9075 48.065 63.8151C47.6027 63.7226 47.2328 63.4452 46.8629 63.1678C46.4931 62.8904 46.2157 62.5205 46.0308 62.1507C45.8458 61.6883 45.7534 61.226 45.7534 60.6712C45.7534 60.024 45.8458 59.4692 46.1232 59.0993C46.3081 58.7294 46.678 58.3596 46.9554 58.0822C47.3253 57.8048 47.6951 57.6198 48.1575 57.5274C48.6198 57.4349 49.0821 57.3424 49.5445 57.25C50.0068 57.1575 50.4691 57.1575 50.9314 57.0651C51.3938 57.0651 51.7636 56.9726 52.1335 56.8801C52.5034 56.7877 52.7808 56.6952 52.9657 56.5103C53.1506 56.3253 53.2431 56.1404 53.2431 55.7705C53.2431 55.4007 53.1506 55.1233 53.0581 54.9383C52.9657 54.7534 52.7808 54.5685 52.5958 54.476C52.4109 54.3835 52.226 54.2911 51.9486 54.2911C51.6712 54.2911 51.4862 54.1986 51.2088 54.1986C50.5616 54.1986 50.0992 54.2911 49.7294 54.5685C49.3595 54.8459 49.1746 55.2157 49.0821 55.863H46.0308C46.2157 55.1233 46.4006 54.476 46.678 54.0137ZM52.7808 58.452C52.5958 58.5445 52.4109 58.5445 52.1335 58.637C51.9486 58.637 51.6712 58.7294 51.3938 58.7294C51.1164 58.7294 50.9314 58.8219 50.654 58.8219C50.3766 58.8219 50.1917 58.9144 50.0068 59.0068C49.8218 59.0993 49.5445 59.1918 49.452 59.2842C49.2671 59.3767 49.1746 59.5616 49.0821 59.7466C48.9897 59.9315 48.8972 60.2089 48.8972 60.4863C48.8972 60.7637 48.9897 61.0411 49.0821 61.226C49.1746 61.4109 49.3595 61.5959 49.452 61.6883C49.6369 61.7808 49.8218 61.8733 50.0992 61.8733C50.3766 61.8733 50.5616 61.9657 50.839 61.9657C51.4862 61.9657 51.9486 61.8733 52.226 61.6883C52.5958 61.5034 52.7808 61.226 52.9657 60.9486C53.1506 60.6712 53.2431 60.3938 53.2431 60.1164C53.2431 59.839 53.3355 59.5616 53.3355 59.3767V58.1746C53.1506 58.2671 52.9657 58.3596 52.7808 58.452Z" fill="#706259"/>
<path d="M66.2808 62.2432C65.9109 62.8905 65.4486 63.2603 64.8014 63.5377C64.2466 63.8151 63.5068 63.9076 62.7671 63.9076C61.9349 63.9076 61.1952 63.7227 60.5479 63.4453C59.9007 63.0754 59.3459 62.7055 58.976 62.1507C58.5137 61.5959 58.2363 60.9487 58.0514 60.209C57.8664 59.4692 57.774 58.7295 57.774 57.8973C57.774 57.1576 57.8664 56.4179 58.0514 55.6781C58.2363 54.9384 58.6062 54.3836 58.976 53.8288C59.3459 53.274 59.9007 52.8117 60.5479 52.5343C61.1952 52.1644 61.9349 52.072 62.7671 52.072C63.4144 52.072 64.0616 52.2569 64.7089 52.5343C65.3562 52.8117 65.8185 53.274 66.0959 53.8288V48.0959H69.2397V63.7227H66.2808V62.2432ZM66.0959 56.6953C66.0034 56.2329 65.8185 55.8631 65.6336 55.5857C65.4486 55.2158 65.1712 55.0309 64.8014 54.7535C64.4315 54.5686 64.0616 54.4761 63.5068 54.4761C62.952 54.4761 62.5822 54.5686 62.2123 54.7535C61.8425 54.9384 61.5651 55.2158 61.3801 55.5857C61.1952 55.9555 61.0103 56.3254 60.9178 56.6953C60.8253 57.1576 60.7329 57.5275 60.7329 58.0822C60.7329 58.5446 60.8253 58.9144 60.9178 59.3768C61.0103 59.8391 61.1952 60.209 61.3801 60.5788C61.5651 60.9487 61.9349 61.2261 62.2123 61.411C62.5822 61.5959 62.952 61.6884 63.4144 61.6884C63.9692 61.6884 64.339 61.5959 64.7089 61.411C65.0788 61.2261 65.3562 60.9487 65.5411 60.5788C65.726 60.209 65.911 59.8391 66.0034 59.3768C66.0959 58.9144 66.0959 58.4521 66.0959 57.9898C66.2808 57.5275 66.1883 57.0651 66.0959 56.6953Z" fill="#706259"/>
<path d="M71.5514 54.0137C71.8288 53.5514 72.2911 53.1815 72.7535 52.9041C73.2158 52.6267 73.7706 52.4418 74.4178 52.2568C75.0651 52.1644 75.6199 52.0719 76.2672 52.0719C76.822 52.0719 77.3768 52.0719 78.024 52.1644C78.5788 52.2568 79.1336 52.4418 79.5959 52.6267C80.0583 52.9041 80.4281 53.1815 80.798 53.6438C81.0754 54.1061 81.2603 54.5685 81.2603 55.3082V61.226C81.2603 61.7808 81.2603 62.2431 81.3528 62.7055C81.4452 63.1678 81.5377 63.5377 81.6302 63.7226H78.4863C78.3939 63.5377 78.3939 63.3527 78.3014 63.1678C78.3014 62.9829 78.2089 62.7979 78.2089 62.613C77.7466 63.1678 77.0994 63.4452 76.4521 63.7226C75.8048 63.9075 75.0651 64 74.4178 64C73.8631 64 73.4007 63.9075 72.9384 63.8151C72.4761 63.7226 72.1062 63.4452 71.7363 63.1678C71.3665 62.8904 71.0891 62.5205 70.9041 62.1507C70.7192 61.7808 70.6268 61.226 70.6268 60.6712C70.6268 60.024 70.7192 59.4692 70.9966 59.0993C71.1815 58.7294 71.5514 58.3596 71.8288 58.0822C72.1987 57.8048 72.5685 57.6198 73.0309 57.5274C73.4932 57.4349 73.9555 57.3424 74.4178 57.25C74.8802 57.1575 75.3425 57.1575 75.8048 57.0651C76.2672 57.0651 76.637 56.9726 77.0069 56.8801C77.3767 56.7877 77.6541 56.6952 77.8391 56.5103C78.024 56.3253 78.1165 56.1404 78.1165 55.7705C78.1165 55.4007 78.024 55.1233 77.9315 54.9383C77.8391 54.7534 77.6541 54.5685 77.4692 54.476C77.2843 54.3835 77.0994 54.2911 76.822 54.2911C76.5446 54.2911 76.3596 54.1986 76.0822 54.1986C75.435 54.1986 74.9726 54.2911 74.6028 54.5685C74.2329 54.8459 74.048 55.2157 73.9555 55.863H70.9041C70.9966 55.1233 71.1815 54.476 71.5514 54.0137ZM77.6542 58.452C77.4692 58.5445 77.2843 58.5445 77.0069 58.637C76.822 58.637 76.5446 58.7294 76.2672 58.7294C75.9898 58.7294 75.8048 58.8219 75.5274 58.8219C75.25 58.8219 75.0651 58.9144 74.8802 59.0068C74.6952 59.0993 74.4179 59.1918 74.3254 59.2842C74.1405 59.3767 74.048 59.5616 73.9555 59.7466C73.8631 59.9315 73.7706 60.2089 73.7706 60.4863C73.7706 60.7637 73.8631 61.0411 73.9555 61.226C74.048 61.4109 74.2329 61.5959 74.3254 61.6883C74.5103 61.7808 74.6952 61.8733 74.9726 61.8733C75.25 61.8733 75.435 61.9657 75.7124 61.9657C76.3596 61.9657 76.822 61.8733 77.0994 61.6883C77.4692 61.5034 77.6541 61.226 77.8391 60.9486C78.024 60.6712 78.1165 60.3938 78.1165 60.1164C78.1165 59.839 78.2089 59.5616 78.2089 59.3767V58.1746C78.024 58.2671 77.8391 58.3596 77.6542 58.452Z" fill="#706259"/>
<path d="M86.0683 52.4417V54.5684C86.2533 54.1986 86.4382 53.9212 86.6231 53.5513C86.9005 53.2739 87.1779 52.9965 87.4553 52.8116C87.7327 52.6266 88.1026 52.4417 88.4725 52.3492C88.8423 52.2568 89.2122 52.1643 89.582 52.1643C89.767 52.1643 90.0444 52.1643 90.2293 52.2568V55.1232C90.0444 55.1232 89.9519 55.0307 89.6745 55.0307C89.4896 55.0307 89.3047 55.0307 89.1197 55.0307C88.5649 55.0307 88.1026 55.1232 87.6403 55.3081C87.2704 55.4931 86.9005 55.7705 86.7156 56.0479C86.4382 56.4177 86.3457 56.7876 86.1608 57.1575C86.0683 57.6198 85.9759 58.0821 85.9759 58.5444V63.6301H82.832V52.4417H86.0683Z" fill="#706259"/>
<path d="M22.4521 61.0411C25.6884 58.637 27.7226 54.7534 27.7226 50.4075C27.7226 43.0103 21.7123 37 14.3151 37C7.01027 37 1 43.0103 1 50.4075C1 57.6199 6.73288 63.5377 13.9452 63.7226H27.7226V61.0411H22.4521ZM3.86644 50.4075C3.86644 44.5822 8.58219 39.8664 14.4075 39.8664C20.2329 39.8664 24.9486 44.5822 24.9486 50.4075C24.9486 56.2329 20.2329 60.9486 14.4075 60.9486C8.58219 60.9486 3.86644 56.2329 3.86644 50.4075Z" fill="#C4E86B"/>
<path d="M20.6952 43.935C19.0308 42.2706 16.9041 41.3459 14.5 41.3459C12.1884 41.3459 9.96921 42.2706 8.30482 43.935C4.88359 47.3562 4.88359 52.9966 8.30482 56.5103L8.48976 56.3254C8.11989 55.9555 6.36304 53.8288 6.36304 50.2227C6.36304 46.4316 9.13702 43.3802 13.4829 43.0103C13.7603 43.0103 14.1302 42.9179 14.4076 42.9179C16.3493 42.9179 18.1062 43.6576 19.4932 45.0446C22.2672 47.911 22.2672 52.6268 19.4932 55.4932L20.6028 56.5103C24.1165 52.9966 24.1165 47.3562 20.6952 43.935Z" fill="#C4E86B"/>
<path d="M18.846 45.7843C17.7364 44.5822 16.1645 43.9349 14.5926 43.9349C12.9282 43.9349 11.4488 44.5822 10.3392 45.7843C8.02754 48.1884 8.02754 52.0719 10.3392 54.476L10.6166 54.1986C9.69193 53.1815 9.2296 51.7945 9.2296 50.4075C9.2296 47.5411 11.4488 45.2295 14.3152 45.2295C17.459 45.2295 19.5858 47.6336 19.4008 50.4075C19.3084 51.3322 18.846 52.4418 18.0138 53.3664L19.031 54.3836C21.1577 52.1644 21.1577 48.1884 18.846 45.7843Z" fill="#C4E86B"/>
<path d="M16.9966 47.726C16.3493 47.0787 15.5171 46.7089 14.5925 46.7089C13.6678 46.7089 12.8356 47.0787 12.1884 47.726C10.8939 49.0205 10.8939 51.2397 12.1884 52.5342L12.4658 52.2568C12.0034 51.7945 11.6336 51.0548 11.6336 50.2226C11.6336 48.7431 12.7432 47.5411 14.0377 47.5411C15.1473 47.5411 16.0719 48.3732 16.3493 49.3904C16.4418 49.5753 16.4418 49.6678 16.4418 49.8527C16.4418 49.9452 16.4418 50.0376 16.4418 50.1301C16.4418 50.6849 16.3493 51.1472 16.0719 51.5171L16.9041 52.3493C18.2911 51.2397 18.2911 49.113 16.9966 47.726Z" fill="#C4E86B"/>
<path d="M95.9623 50.4075V48.0034H96.9795C97.1644 48.0034 97.3493 48.0034 97.4418 48.0959C97.5343 48.0959 97.6267 48.1883 97.7192 48.2808C97.8117 48.3733 97.8117 48.4657 97.8117 48.6507C97.8117 48.8356 97.7192 48.9281 97.6267 49.113C97.5343 49.2055 97.3493 49.2979 97.1644 49.2979C97.2569 49.2979 97.3493 49.3904 97.3493 49.3904C97.4418 49.4829 97.5343 49.5753 97.6267 49.6678L97.9966 50.3151H97.6267L97.3493 49.8527C97.2569 49.6678 97.1644 49.5753 97.1644 49.4829C97.0719 49.3904 97.0719 49.3904 96.9795 49.2979C96.887 49.2979 96.887 49.2055 96.7945 49.2055C96.7945 49.2055 96.7021 49.2055 96.6096 49.2055H96.2397V50.4075H95.9623ZM96.2397 49.113H96.887C97.0719 49.113 97.1644 49.113 97.2569 49.113C97.3493 49.113 97.4418 49.0205 97.4418 48.9281C97.4418 48.8356 97.5343 48.8356 97.5343 48.7431C97.5343 48.6507 97.5343 48.5582 97.4418 48.4657C97.3493 48.3733 97.2569 48.3733 97.0719 48.3733H96.3322V49.113H96.2397Z" fill="#706259"/>
<path d="M96.7946 51.6095C95.5001 51.6095 94.483 50.5924 94.483 49.2978C94.483 48.0033 95.5001 46.9862 96.7946 46.9862C98.0891 46.9862 99.1063 48.0033 99.1063 49.2978C99.1063 50.5924 98.0891 51.6095 96.7946 51.6095ZM96.7946 47.1711C95.685 47.1711 94.7604 48.0958 94.7604 49.2054C94.7604 50.315 95.685 51.2396 96.7946 51.2396C97.9042 51.2396 98.8289 50.315 98.8289 49.2054C98.9213 48.0958 97.9042 47.1711 96.7946 47.1711Z" fill="#706259"/>
</svg>

<svg xmlns="http://www.w3.org/2000/svg" width="100" height="100" fill="none"><path fill="#706259" d="M39.743 48.096c.74 0 1.295.092 1.85.37.554.185 1.016.555 1.479.925.37.37.74.832.924 1.387q.278.831.278 1.664c0 .925-.185 1.757-.555 2.404s-1.017 1.202-1.942 1.572c.463.092.74.277 1.017.555.278.277.463.555.648.832.185.37.277.647.37 1.11.092.37.092.832.184 1.202v.832c0 .37 0 .647.093 1.017 0 .37.092.647.185 1.017.092.277.185.555.37.832h-3.422c-.184-.462-.277-1.11-.37-1.757 0-.647-.092-1.387-.184-1.941-.093-.833-.37-1.387-.74-1.757s-1.017-.555-1.85-.555H34.75v6.103h-3.421V48.096zm-1.294 7.027c.74 0 1.387-.185 1.756-.554.37-.37.555-.925.555-1.757q0-1.11-.555-1.665c-.37-.37-1.017-.554-1.756-.554h-3.7v4.438h3.7zM46.678 54.014c.277-.463.74-.833 1.202-1.11s1.017-.462 1.664-.647c.648-.093 1.203-.185 1.85-.185.555 0 1.11 0 1.757.092.554.093 1.11.278 1.571.463.463.277.833.554 1.203 1.017.277.462.462.925.462 1.664v5.918c0 .555 0 1.017.092 1.48.093.462.185.832.278 1.017h-3.144c-.093-.185-.093-.37-.185-.555 0-.185-.092-.37-.092-.555-.463.555-1.11.832-1.757 1.11a7.7 7.7 0 0 1-2.035.277c-.554 0-1.017-.093-1.479-.185s-.832-.37-1.202-.647a2.9 2.9 0 0 1-.832-1.017 3.8 3.8 0 0 1-.278-1.48c0-.647.093-1.202.37-1.572.185-.37.555-.74.832-1.017.37-.277.74-.462 1.203-.555l1.386-.277c.463-.093.925-.093 1.387-.185.463 0 .833-.092 1.203-.185.37-.092.647-.185.832-.37s.277-.37.277-.74-.092-.647-.185-.832a1.1 1.1 0 0 0-.462-.462c-.185-.093-.37-.185-.647-.185-.278 0-.463-.092-.74-.092-.647 0-1.11.092-1.48.37-.37.277-.554.647-.647 1.294h-3.051c.185-.74.37-1.387.647-1.85m6.103 4.438c-.185.093-.37.093-.648.185-.184 0-.462.092-.74.092s-.462.093-.739.093-.462.092-.647.185c-.185.092-.462.185-.555.277-.185.093-.277.278-.37.463a1.74 1.74 0 0 0-.185.74c0 .277.093.554.185.739.093.185.277.37.37.462.185.093.37.185.647.185.278 0 .463.093.74.093q.971 0 1.387-.278c.37-.185.555-.462.74-.74q.277-.415.277-.832c0-.277.093-.554.093-.74v-1.201zM66.28 62.243c-.37.648-.831 1.017-1.479 1.295-.554.277-1.294.37-2.034.37a5.6 5.6 0 0 1-2.22-.463c-.646-.37-1.201-.74-1.571-1.294-.462-.555-.74-1.202-.925-1.942a9.3 9.3 0 0 1-.277-2.312q0-1.11.277-2.219c.185-.74.555-1.294.925-1.85a3.6 3.6 0 0 1 1.572-1.294c.647-.37 1.387-.462 2.22-.462.646 0 1.294.185 1.94.462.648.278 1.11.74 1.388 1.295v-5.733h3.144v15.627h-2.96zm-.184-5.548a3.1 3.1 0 0 0-.462-1.11c-.185-.37-.463-.554-.833-.831-.37-.185-.74-.278-1.294-.278-.555 0-.925.093-1.295.278q-.555.276-.832.832c-.185.37-.37.74-.462 1.11-.093.462-.185.832-.185 1.386 0 .463.092.832.185 1.295.092.462.277.832.462 1.202s.555.647.832.832c.37.185.74.277 1.202.277.555 0 .925-.092 1.295-.277q.555-.277.832-.832c.185-.37.37-.74.462-1.202.093-.463.093-.925.093-1.387.185-.462.092-.925 0-1.295M71.551 54.014c.278-.463.74-.833 1.203-1.11.462-.277 1.017-.462 1.664-.647.647-.093 1.202-.185 1.85-.185.554 0 1.109 0 1.756.092.555.093 1.11.278 1.572.463.462.277.832.554 1.202 1.017.277.462.462.925.462 1.664v5.918c0 .555 0 1.017.093 1.48.092.462.185.832.277 1.017h-3.144c-.092-.185-.092-.37-.185-.555 0-.185-.092-.37-.092-.555-.462.555-1.11.832-1.757 1.11a7.7 7.7 0 0 1-2.034.277c-.555 0-1.017-.093-1.48-.185-.462-.092-.832-.37-1.202-.647a2.9 2.9 0 0 1-.832-1.017c-.185-.37-.277-.925-.277-1.48 0-.647.092-1.202.37-1.572.184-.37.554-.74.832-1.017.37-.277.74-.462 1.202-.555l1.387-.277c.462-.093.924-.093 1.387-.185.462 0 .832-.092 1.202-.185.37-.092.647-.185.832-.37s.278-.37.278-.74-.093-.647-.186-.832a1.1 1.1 0 0 0-.462-.462c-.185-.093-.37-.185-.647-.185s-.462-.092-.74-.092c-.647 0-1.11.092-1.48.37-.37.277-.554.647-.647 1.294h-3.05c.092-.74.276-1.387.646-1.85m6.103 4.438c-.185.093-.37.093-.647.185-.185 0-.462.092-.74.092s-.462.093-.74.093-.462.092-.647.185c-.185.092-.462.185-.555.277-.184.093-.277.278-.37.463a1.74 1.74 0 0 0-.184.74c0 .277.092.554.184.739.093.185.278.37.37.462.185.093.37.185.648.185.277 0 .462.093.74.093q.97 0 1.386-.278c.37-.185.555-.462.74-.74q.278-.415.278-.832c0-.277.092-.554.092-.74v-1.201zM86.068 52.442v2.126c.185-.37.37-.647.555-1.017.277-.277.555-.555.832-.74.278-.184.648-.37 1.017-.462.37-.092.74-.185 1.11-.185.185 0 .462 0 .647.093v2.866c-.185 0-.277-.092-.555-.092h-.554c-.555 0-1.017.092-1.48.277-.37.185-.74.462-.924.74-.278.37-.37.74-.555 1.11-.093.462-.185.924-.185 1.386v5.086h-3.144V52.442z"/><path fill="#C4E86B" d="M22.452 61.041c3.236-2.404 5.27-6.288 5.27-10.633C27.723 43.01 21.713 37 14.316 37 7.01 37 1 43.01 1 50.407c0 7.213 5.733 13.13 12.945 13.316h13.778V61.04zM3.866 50.408a10.536 10.536 0 0 1 10.542-10.542 10.536 10.536 0 0 1 10.54 10.542 10.536 10.536 0 0 1-10.54 10.54 10.536 10.536 0 0 1-10.542-10.54"/><path fill="#C4E86B" d="M20.695 43.935c-1.664-1.664-3.79-2.59-6.195-2.59-2.312 0-4.53.926-6.195 2.59-3.421 3.421-3.421 9.062 0 12.575l.185-.185c-.37-.37-2.127-2.496-2.127-6.102 0-3.791 2.774-6.843 7.12-7.213.277 0 .647-.092.925-.092 1.941 0 3.698.74 5.085 2.127 2.774 2.866 2.774 7.582 0 10.448l1.11 1.017c3.513-3.513 3.513-9.154.092-12.575"/><path fill="#C4E86B" d="M18.846 45.784a5.81 5.81 0 0 0-4.253-1.85c-1.665 0-3.144.648-4.254 1.85-2.311 2.404-2.311 6.288 0 8.692l.278-.277c-.925-1.017-1.387-2.404-1.387-3.791 0-2.867 2.219-5.178 5.085-5.178 3.144 0 5.27 2.404 5.086 5.178-.093.924-.555 2.034-1.387 2.958l1.017 1.018c2.127-2.22 2.127-6.196-.185-8.6"/><path fill="#C4E86B" d="M16.997 47.726c-.648-.647-1.48-1.017-2.405-1.017s-1.756.37-2.404 1.017c-1.294 1.294-1.294 3.514 0 4.808l.278-.277a2.93 2.93 0 0 1-.832-2.034c0-1.48 1.11-2.682 2.404-2.682 1.11 0 2.034.832 2.311 1.85.093.184.093.277.093.462v.277c0 .555-.093 1.017-.37 1.387l.832.832c1.387-1.11 1.387-3.236.093-4.623"/><path fill="#706259" d="M95.962 50.408v-2.405h1.017c.185 0 .37 0 .463.093.092 0 .185.092.277.185.093.092.093.185.093.37s-.093.277-.185.462a.7.7 0 0 1-.463.185c.093 0 .185.092.185.092l.278.278.37.647h-.37l-.278-.462c-.092-.185-.185-.278-.185-.37l-.184-.185c-.093 0-.093-.093-.186-.093h-.554v1.203zm.278-1.295h1.017a.2.2 0 0 0 .185-.185c0-.092.092-.092.092-.185 0-.092 0-.185-.092-.277-.093-.093-.185-.093-.37-.093h-.74v.74z"/><path fill="#706259" d="M96.795 51.61a2.29 2.29 0 0 1-2.312-2.312 2.29 2.29 0 0 1 2.312-2.312 2.29 2.29 0 0 1 2.311 2.312 2.29 2.29 0 0 1-2.311 2.311m0-4.439c-1.11 0-2.035.925-2.035 2.034 0 1.11.925 2.035 2.035 2.035s2.034-.925 2.034-2.035c.092-1.11-.925-2.034-2.034-2.034"/></svg>
